X:252
T:Ain' Goin' Study War No More
T:Down By The Riverside
Z:Jack Campin, http://www.campin.me.uk/
F:Jack Campin's Nine-Note Tunebook
% last edit 03-02-2013
B:Topic Song Book, c.1960
M:4/4
L:1/8
Q:1/4=120
K:G
GA|B D2 E GG G2|B2  B>^A B/=A/ G3 |A2   A>G A/G/ E3 |G2 G>E G/E/D
GA|B D2 E GG G2|B2  A>^A B/=A/G GG|B<A- Ac  B2    A2|G6        ||
GG|c<c cc c2 GA|B<B BB   B2     GG|B<A- A2  G2    A2|B6
AB|c<c cc c2 GA|B<B BB   B2     GG|B<A-(Ac) B2    A2|G6        |]

